!!!!SEGMENT: T704_Cop-w7p21m6-1h19.krn
!!!COM: Copland, Aaron
!!!OTL: single movement work
!!!AGN: Orchestral
!!!AGN-sub: Symphonic
!!!CNT: American
!!!ODT: 1929 (rev. 1955)
!!!OPR: Symphonic Ode
!!!filename: T704_Cop-w7p21m6-1h19.krn
**kern	**dynam	**kern	**dynam	**kern	**dynam	**kern	**dynam	**kern	**dynam	**kern	**dynam	**kern	**dynam	**kern	**dynam	**kern	**dynam	**kern	**dynam
*grp:A	*	*grp:A	*	*grp:B	*	*grp:B	*	*grp:B	*	*grp:B	*	*grp:B	*	*grp:B	*	*grp:A	*	*grp:A	*
*part10	*	*part9	*	*part8	*	*part7	*	*part6	*	*part5	*	*part4	*	*part3	*	*part2	*	*part1	*
*staff10	*	*staff9	*	*staff8	*	*staff7	*	*staff6	*	*staff5	*	*staff4	*	*staff3	*	*staff2	*	*staff1	*
*ICstr	*	*ICstr	*	*ICstr	*	*ICstr	*	*ICstr	*	*ICbras	*	*ICbras	*	*ICbras	*	*ICww	*	*ICww	*
*Icbass	*	*Icello	*	*Iviola	*	*Ivioln	*	*Ivioln	*	*Itromp	*	*Itromp	*	*Icor	*	*Ifag_c	*	*Ifagot	*
*I"Contrabass	*	*I"Violoncello	*	*I"Viola	*	*I"Violin II	*	*I"Violin I	*	*I"Trumpet in C 2	*	*I"Trumpet in C 1	*	*I"Horn in F 1, 2	*	*I"Contrabassoon	*	*I"Bassoon 1, 2, 3	*
*I'cb	*	*I'vc	*	*I'vla	*	*I'vn	*	*I'vn	*	*I'tp	*	*I'tp	*	*I'cor-fr	*	*I'c-bn	*	*I'bn	*
*clefF4	*	*clefF4	*	*clefC3	*	*clefG2	*	*clefG2	*	*clefG2	*	*clefG2	*	*clefG2	*	*clefF4	*	*clefF4	*
*ITrd7c12	*	*	*	*	*	*	*	*	*	*	*	*	*	*ITrd4c7	*	*ITrd7c12	*	*	*
*k[]	*	*k[]	*	*k[]	*	*k[]	*	*k[]	*	*k[]	*	*k[]	*	*k[b-]	*	*k[]	*	*k[]	*
*	*	*	*	*	*	*	*	*	*	*	*	*	*	*	*	*	*	*	*
*M7/8	*	*M7/8	*	*M7/8	*	*M7/8	*	*M7/8	*	*M7/8	*	*M7/8	*	*M7/8	*	*M7/8	*	*M7/8	*
=1	=1	=1	=1	=1	=1	=1	=1	=1	=1	=1	=1	=1	=1	=1	=1	=1	=1	=1	=1
!	!LO:DY:ed=brack	!	!LO:DY:ed=brack	!	!LO:DY:ed=brack	!	!LO:DY:ed=brack	!	!LO:DY:ed=brack	!	!LO:DY:ed=brack	!	!LO:DY:ed=brack	!	!LO:DY:ed=brack	!	!LO:DY:ed=brack	!LO:TX:t=[[quarter]=172]	!LO:DY:ed=brack
8r	f	8r	f	8d^L	f	8d^L	f	8cc^L	f	8%7r	f	8r	f	8%7r	f	8r	f	8r	f
!	!	!	!	!	!	!	!	!	!	!	!	!	!	!	!	!	!	!LO:TX:a:rj:t=a3	!
8FFF#X^	.	8FF#X^	.	8c	.	8c	.	8ddJ	.	.	.	8cc^>L	.	.	.	8FFF#X^	.	8F#X^	.
4r	.	4r	.	8d	.	8d	.	4r	.	.	.	8cc	.	.	.	4r	.	4r	.
.	.	.	.	8eJ	.	8eJ	.	.	.	.	.	8gJ	.	.	.	.	.	.	.
=:	=:	=:	=:	=:	=:	=:	=:	=:	=:	=-	=-	=:	=:	=-	=-	=:	=:	=:	=:
8GGG#X^	.	8GG#X^	.	8d^L	.	8d^L	.	8r	.	.	.	8cc^L	.	.	.	8GGG#X^	.	8G#X^	.
4r	.	4r	.	8e	.	8e	.	8dd^>L	.	.	.	8ddJ	.	.	.	4r	.	4r	.
.	.	.	.	8f#XJ	.	8f#XJ	.	8a	.	.	.	8r	.	.	.	.	.	.	.
=2	=2	=2	=2	=2	=2	=2	=2	=2	=2	=2	=2	=2	=2	=2	=2	=2	=2	=2	=2
*M3/8	*	*M3/8	*	*M3/8	*	*M3/8	*	*M3/8	*	*M3/8	*	*M3/8	*	*M3/8	*	*M3/8	*	*M3/8	*
!	!	!	!	!	!	!	!	!	!	!LO:TX:a:t=senza sord.	!	!	!	!	!	!	!	!	!
8FFF#X^	.	8FF#X^	.	8e^L	.	8e^L	.	8dJ	.	8dd^L	f	8%3r	.	8%3r	.	8FFF#X^	.	8F#X^	.
8r	.	8r	.	8f#X	.	8f#X	.	8dd^L	.	8dd	.	.	.	.	.	4r	.	4r	.
8r	.	8r	.	8g#XJ	.	8g#XJ	.	8eeJ	.	8aJ	.	.	.	.	.	.	.	.	.
=3	=3	=3	=3	=3	=3	=3	=3	=3	=3	=3	=3	=3	=3	=3	=3	=3	=3	=3	=3
*M7/8	*	*M7/8	*	*M7/8	*	*M7/8	*	*M7/8	*	*M7/8	*	*M7/8	*	*M7/8	*	*M7/8	*	*M7/8	*
8FFF#X^	.	8FF#X^	.	8e^L	.	8e^L	.	8r	.	8%7r	.	2r	.	8%7r	.	8GGG#X^	.	8G#X^	.
8r	.	8r	.	8d	.	8d	.	8ee^>L	.	.	.	.	.	.	.	8r	.	8r	.
8GGG#X^	.	8GG#X^	.	8e	.	8e	.	8b	.	.	.	.	.	.	.	8AAA#X^	.	8A#X^	.
8r	.	8r	.	8f#XJ	.	8f#XJ	.	8eJ	.	.	.	.	.	.	.	8r	.	8r	.
=:	=:	=:	=:	=:	=:	=:	=:	=:	=:	=-	=-	=:	=:	=-	=-	=:	=:	=:	=:
8r	.	8r	.	8e^L	.	8e^L	.	4r	.	.	.	8r	.	.	.	8r	.	8r	.
8GGG#^	.	8GG#^	.	8f#	.	8f#	.	.	.	.	.	8ee^>L	.	.	.	8GGG#y^	.	8G#y^	.
8r^	.	8r^	.	8g#XJ	.	8g#XJ	.	8r	.	.	.	8b	.	.	.	8r	.	8r	.
=4	=4	=4	=4	=4	=4	=4	=4	=4	=4	=4	=4	=4	=4	=4	=4	=4	=4	=4	=4
8AAA#X^	.	8AA#X^	.	8e^L	.	8e^L	.	8ee^L	.	2r	.	8eJ	.	8%7r	.	8AAA#X^	.	8A#X^	.
4r	.	4r	.	8f#X	.	8f#X	.	8b	.	.	.	8ee^L	.	.	.	8r	.	8r	.
.	.	.	.	8g#X	.	8g#X	.	8bJ	.	.	.	8ff#XJ	.	.	.	8r^	.	8r^	.
8GGG#X^	.	8GG#X^	.	8a#XJ	.	8a#XJ	.	8ee^L	.	.	.	8r	.	.	.	8GGG#X^	.	8G#X^	.
=:	=:	=:	=:	=:	=:	=:	=:	=:	=:	=:	=-	=:	=:	=-	=-	=:	=:	=:	=:
4r	.	4r	.	8g#^L	.	8g#^L	.	8ff#XJ	.	4r	.	4r	.	.	.	8r	.	8r	.
.	.	.	.	8a#	.	8a#	.	8r	.	.	.	.	.	.	.	8r^	.	8r^	.
8AAA#^	.	8AA#^	.	8b#XJ	.	8b#XJ	.	8cc#X	.	8cc#X^>L	.	8r	.	.	.	8AAA#y^	.	8A#y^	.
=5	=5	=5	=5	=5	=5	=5	=5	=5	=5	=5	=5	=5	=5	=5	=5	=5	=5	=5	=5
4r	.	4r	.	8g#X^L	.	8g#X^L	.	8ff#X^L	.	8f#X	.	8%7r	.	4r	.	8%7r	.	8%7r	.
.	.	.	.	8f#X	.	8f#X	.	8gg#X	.	8c#XJ	.	.	.	.	.	.	.	.	.
8GGG#X^	.	8GG#X^	.	8g#	.	8g#	.	8dd#X	.	8r	.	.	.	8r	.	.	.	.	.
!	!	!	!	!	!	!	!	!	!	!	!	!	!	!LO:TX:a:rj:t=a2	!	!	!	!	!
8r	.	8r	.	8a#XJ	.	8a#XJ	.	8g#XJ	.	2r	.	.	.	8g#X^>L	f	.	.	.	.
8r	.	8r	.	8g#^L	.	8g#^L	.	8r	.	.	.	.	.	8d#X	.	.	.	.	.
8AAA#X^	.	8AA#X^	.	8a#	.	8a#	.	8gg#^L	.	.	.	.	.	8G#XJ	.	.	.	.	.
8r^	.	8r^	.	8ccnJ	.	8ccnJ	.	8gg#	.	.	.	.	.	8r	.	.	.	.	.
=6	=6	=6	=6	=6	=6	=6	=6	=6	=6	=6	=6	=6	=6	=6	=6	=6	=6	=6	=6
*M3/8	*	*M3/8	*	*M3/8	*	*M3/8	*	*M3/8	*	*M3/8	*	*M3/8	*	*M3/8	*	*M3/8	*	*M3/8	*
8BBB#X^	.	8BB#X^	.	8b-X^L	.	8b-X^L	.	8dd#XJ	.	8%3r	.	8g#XL	.	8d#XL	.	8%3r	.	8%3r	.
8r	.	8r	.	8cc	.	8cc	.	8aa#X^L	.	.	.	8dd#X^	.	8a#X^	.	.	.	.	.
8r	.	8r	.	8ddJ	.	8ddJ	.	8ee#XJ	.	.	.	8a#XJ	.	8e#XJ	.	.	.	.	.
=||	=||	=||	=||	=||	=||	=||	=||	=||	=||	=||	=||	=||	=||	=||	=||	=||	=||	=||	=||
*-	*-	*-	*-	*-	*-	*-	*-	*-	*-	*-	*-	*-	*-	*-	*-	*-	*-	*-	*-
!!!system-decoration: [(s1,s2)][(s3[(s4,s5)])][([(s6,s7)]s8,s9,s10)]
!!!RDF**kern: > = above
!!!RDF**kern: < = below
!!!EED: Rafael Laurindo
!!!EEV: 2021/09/20
!!!EED2: Gabriella Vici
!!!Suter_Work_ID: Cop-7
!!!Suter_Example_Number: 704
!!!Suter_Example_ID: Cop-7/21/6-1[19]
!!!Premiere_Location: Boston,United States
!!!Other_Tsigs: 3/8,7/8,3/8
!!!Full_Unit_Duration: 18:06
!!!First_Publication_Year: 1957
!!!First_Public_Performance_Year: 1932
!!!Example_Total_Measures: 6
!!!Example_Timestamp_Duration: 6
!!!Example_Start_Tsig_Type: changing
!!!Example_Start_Tsig_Mean_Beat_Rate: 172
!!!Example_Start_Tsig_Beat_Rate: 172
!!!Example_Start_Tsig_Beat: eighth
!!!Example_Start_Tsig: 7/8
!!!Example_Start_Timestamp: 5:21
!!!Example_Start_Tempo_Expression: [Subito allegro]
!!!Example_Start_Notated_Beat_Rate: [168-176]
!!!Example_Start_Notated_Beat: [quarter]
!!!Example_Start_Measure: 165
!!!Example_Metadata_Validated: Y
!!!Example_End_Timestamp: 5:27
!!!Example_End_Measure: 170
!!!Example_Dataset: T
!!!Editorial_Comments: Example Start Notated Beat and Example Start Notated Beat Rate [quarter=168-176] based on most recent notated beat rate (SWFU, m. 92). Example Start Tempo Expression [Subito allegro] based on most recent notated tempo expression (SWFU, m. 92).
!!!Death_Place: North Tarrytown,United States
!!!Death_Date: 2-Dec-1990
!!!Changing_Tsig: yes
!!!Birth_Place: Brooklyn,United States
!!!Birth_Date: 14-Nov-1900
!!!Audio_Example_Quarter_Note_Tempo:
!!!Audio_Example_Duration:
!!!EEV2: 2022/03/01
